X:6021
T:Fred Pidgeon's 1, 2, and 3
R:Polka
C:Trad.
O:England; Devon
Z:Paul Hardy's Session Tunebook 2022 (see www.paulhardy.net). Creative Commons cc by-nc-sa licenced.
M:4/4
L:1/8
Q:1/4=150
K:G
T:Fred Pidgeon's No. 1
D2|"G"G2G2 "D"FGAF|"G"G2G2 "D"FGAF|"G"G2B2 "C"cBAG|"D"F2A2 D2D2|"G"G2G2 "D"FGAF|"G"G2G2 "D"FGAF|"G"G2B2 "C"cBAG|"D"D2 "G"G2G2:|
|:Bc|"G"d4 d4|"D"dcBA "G"G2G2|"D"A3B cBcd|"Am"e2A2 A2 Bc|"G"d4 d4|"D"dcBA "G"G2G2|"D"A2A2 D2EF|"G"G4 G2:|
T:Fred Pidgeon's No. 2
Bc|"G"d2G2 G2 AB|"C"c2E2 E2G2|"D"FGAB cBAc|"G"e2d2 "D"dc Bc|"G"d2G2 G2 AB|"C"c2E2 E2G2|"D7"FGAB c2F2|"G"A2 G2G2:|
|:ef|"G"g2g2 g2 ag|"C"f2e2 e3B|"Am"c2c2 cBAc|"D"e2d2 d2 ef|"G"g2g2 g2 ag|"C"f2e2 e3G|"D7"FGAB c2F2|"G"A2 G2G2:|
T:Fred Pidgeon's No. 3
D2|"G"GFGA BABc|d2 B2 B2 AB|"D"c2 A2 ABcA|F2 D2 D2 D2|"G"GFGA BABc|d2 B2 B2 AB|"Am"c2 A2 "D"F2 D2|"G"G4 G2:|
|:GA|"G"B2 GG G2 G2|G4 GFGA|B2 GG G2 G2|"D"A4 A2 GA|"G"B2 GG G2 F2|"C"E2 c2 c4|"G"d2 cB "D7"A2 B2|"G"G4 G2:|

